!!!COM: Johann Christoph Bach
!!!OTL: Fughette
!!!system-decoration: [([(s1,s2)]s3,s4)]
**kern	**kern	**kern	**kern	**dynam	**kern	**kern	**kern	**kern	**kern	**kern	**kern	**kern	**kern	**kern	**kern	**kern
*part4	*part4	*part4	*part4	*part4	*part3	*part3	*part3	*part3	*part2	*part2	*part2	*part2	*part1	*part1	*part1	*part1
*staff16	*staff15	*staff14	*staff13	*	*staff12	*staff11	*staff10	*staff9	*staff8	*staff7	*staff6	*staff5	*staff4	*staff3	*staff2	*staff1
*I'B. Tbn.	*	*	*	*	*I'Tbn.	*	*	*	*I'C Tpt. 2	*	*	*	*I'C Tpt. 1	*	*	*
*I"Bass Trombone	*	*	*	*	*I"Trombone	*	*	*	*I"Trumpet in C 2	*	*	*	*I"Trumpet in C 1	*	*	*
*clefF4	*	*clefF4	*clefG2	*clefG2
*k[f#]	*	*k[f#]	*k[f#]	*k[f#]
*M4/4	*	*M4/4	*M4/4	*M4/4
!	!	!	!	!LO:TX:a:iB:t=Allegro
1r	.	1r	4r	1r
.	.	.	4d	.
.	.	.	4d	.
.	.	.	4d	.
=2	=2	=2	=2	=2
1r	.	1r	4d	1r
.	.	.	4d	.
.	.	.	8dL	.
.	.	.	8eJ	.
.	.	.	4f#y	.
=3	=3	=3	=3	=3
1r	.	4r	4g	1r
.	.	4G	8gL	.
.	.	.	8f#yJ	.
.	.	4G	4e	.
.	.	4G	4d	.
=4	=4	=4	=4	=4
1r	.	4G	4c	1r
.	.	4G	8BL	.
.	.	.	8cJ	.
.	.	8GL	2d	.
.	.	8AJ	.	.
.	.	4B	.	.
=5	=5	=5	=5	=5
1r	.	2c	8eL	1r
.	.	.	8f#yJ	.
.	.	.	4g	.
.	.	8AL	2a	.
.	.	8BJ	.	.
.	.	4c	.	.
!!LO:LB
=6	=6	=6	=6	=6
1r	.	4d	4f#y	4r
.	.	4B	4d	4g
.	.	4c	4e	4g
.	.	4B	4d	4g
=7	=7	=7	=7	=7
1r	.	4c	4e	4g
.	.	4B	4d	4g
.	.	4c	2e	8gL
.	.	.	.	8aJ
.	.	4B	.	4b
=8	=8	=8	=8	=8
1r	.	8AL	2a	2cc
.	.	8BJ	.	.
.	.	4c	.	.
.	.	2d	2f#y	8aL
.	.	.	.	8bJ
.	.	.	.	4cc
=9	=9	=9	=9	=9
4r	.	1r	4d	4dd
4D	.	.	4f#y	4a
4D	.	.	4g	4b
4D	.	.	8f#yL	8aL
.	.	.	8eJ	8gJ
=10	=10	=10	=10	=10
4D	.	1r	2d	4f#y
4D	.	.	.	4g
8DL	.	.	2d	2a
8EJ	.	.	.	.
4F#y	.	.	.	.
=11	=11	=11	=11	=11
2G	.	2r	8gL	8bL
.	.	.	8aJ	8ccJ
.	.	.	4b	4dd
2r	.	8GL	2cc	2ee
.	.	8AJ	.	.
.	.	4B	.	.
=12	=12	=12	=12	=12
1r	.	2c	8eL	8gL
.	.	.	8f#yJ	8aJ
.	.	.	4g	4b
.	.	8AL	2a	2cc
.	.	8BJ	.	.
.	.	4c	.	.
=13	=13	=13	=13	=13
1r	.	2d	8f#yL	8aL
.	.	.	8gJ	8bJ
.	.	.	4a	4cc
.	.	8f#yL	2b	2dd
.	.	8d	.	.
.	.	8e	.	.
.	.	8f#yJ	.	.
=14	=14	=14	=14	=14
4r	.	4g	4b	4dd
4GG	.	4r	8bL	8ddL
.	.	.	8aJ	8ccJ
4GG	.	2r	4g	4b
4GG	.	.	8gL	8bL
.	.	.	8f#yJ	8aJ
=15	=15	=15	=15	=15
4GG	.	1r	4e	4g
4GG	.	.	4c	8eL
.	.	.	.	8f#yJ
8GGL	.	.	2d	2g
8AAJ	.	.	.	.
4BB	.	.	.	.
!!LO:LB
=16	=16	=16	=16	=16
1C	.	8EL	8gL	1r
.	.	8F#yJ	8aJ	.
.	.	4G	4b	.
.	.	8AL	8ccL	.
.	.	8B	8dd	.
.	.	8A	8cc	.
.	.	8GJ	8bJ	.
=17	=17	=17	=17	=17
[1D	p	4F#y	4a	4r
.	.	4B	4r	4dd
.	.	4A	2r	4dd
.	.	4G	.	4dd
=18	=18	=18	=18	=18
1D_	.	4F#y	1r	4dd
.	.	4G	.	4dd
.	.	2A	.	8ddL
.	.	.	.	8eeJ
.	.	.	.	4ff#y
=19	=19	=19	=19	=19
1D_	.	4B	1r	4gg
.	.	8AL	.	8ff#yL
.	.	8GJ	.	8eeJ
.	.	4A	.	4ff#y
.	.	4F#y	.	4dd
=20	=20	=20	=20	=20
1D_	.	4G	2r	4ee
.	.	8F#yL	.	8ddL
.	.	8EJ	.	8ccJ
.	.	4D	4r	4dd
.	.	4r	4d	4b
!!LO:LB
=21	=21	=21	=21	=21
1D_	.	2r	4e	4cc
.	.	.	8dL	8bL
.	.	.	8cJ	8aJ
.	.	4r	4d	4b
.	.	4B	4r	4g
=22	=22	=22	=22	=22
1D_	.	8dL	4r	4a
.	.	8cJ	.	.
.	.	4B	4g	4r
.	.	4A	4f#y	2r
.	.	4B	4g	.
=23	=23	=23	=23	=23
1D_	.	4F#y	4a	8r
.	.	.	.	8ddL
.	.	4G	4g	8b
.	.	.	.	8gJ
.	.	8F#yL	8r	4a
.	.	8D	8f#yL	.
.	.	8E	8g	4dd
.	.	8F#yJ	8aJ	.
=24	=24	=24	=24	=24
1D]	.	8GL	2d	2b
.	.	8DJ	.	.
.	.	[2G	.	.
.	.	.	[2c	2a
.	.	8GL]	.	.
.	.	8F#yJ	.	.
=25	=25	=25	=25	=25
1GG;	.	1G;	8cL]	1g;
.	.	.	8c	.
.	.	.	8B	.
.	.	.	8AJ	.
.	.	.	2B;	.
==	==	==	==	==
*-	*-	*-	*-	*-
